www/assets/icons/point_of_sale.svg

<svg xmlns="http://www.w3.org/2000/svg" width="24" height="24" viewBox="0 0 24 24" fill='currentColor'><path d="M17 2H7c-1.1 0-2 .9-2 2v2c0 1.1.9 2 2 2h10c1.1 0 2-.9 2-2V4c0-1.1-.9-2-2-2m0 4H7V4h10zm3 16H4c-1.1 0-2-.9-2-2v-1h20v1c0 1.1-.9 2-2 2m-1.47-11.81A2.01 2.01 0 0 0 16.7 9H7.3c-.79 0-1.51.47-1.83 1.19L2 18h20zM9.5 16h-1c-.28 0-.5-.22-.5-.5s.22-.5.5-.5h1c.28 0 .5.22.5.5s-.22.5-.5.5m0-2h-1c-.28 0-.5-.22-.5-.5s.22-.5.5-.5h1c.28 0 .5.22.5.5s-.22.5-.5.5m0-2h-1c-.28 0-.5-.22-.5-.5s.22-.5.5-.5h1c.28 0 .5.22.5.5s-.22.5-.5.5m3 4h-1c-.28 0-.5-.22-.5-.5s.22-.5.5-.5h1c.28 0 .5.22.5.5s-.22.5-.5.5m0-2h-1c-.28 0-.5-.22-.5-.5s.22-.5.5-.5h1c.28 0 .5.22.5.5s-.22.5-.5.5m0-2h-1c-.28 0-.5-.22-.5-.5s.22-.5.5-.5h1c.28 0 .5.22.5.5s-.22.5-.5.5m3 4h-1c-.28 0-.5-.22-.5-.5s.22-.5.5-.5h1c.28 0 .5.22.5.5s-.22.5-.5.5m0-2h-1c-.28 0-.5-.22-.5-.5s.22-.5.5-.5h1c.28 0 .5.22.5.5s-.22.5-.5.5m0-2h-1c-.28 0-.5-.22-.5-.5s.22-.5.5-.5h1c.28 0 .5.22.5.5s-.22.5-.5.5"/></svg>

<svg width="24" height="24" viewBox="0 0 24 24" xmlns="http://www.w3.org/2000/svg" fill='currentColor'><path d="M17 2H7C5.9 2 5 2.9 5 4V6C5 7.1 5.9 8 7 8H17C18.1 8 19 7.1 19 6V4C19 2.9 18.1 2 17 2ZM17 6H7V4H17V6ZM20 22H4C2.9 22 2 21.1 2 20V19H22V20C22 21.1 21.1 22 20 22ZM18.53 10.19C18.21 9.47 17.49 9 16.7 9H7.3C6.51 9 5.79 9.47 5.47 10.19L2 18H22L18.53 10.19ZM9.5 16H8.5C8.22 16 8 15.78 8 15.5C8 15.22 8.22 15 8.5 15H9.5C9.78 15 10 15.22 10 15.5C10 15.78 9.78 16 9.5 16ZM9.5 14H8.5C8.22 14 8 13.78 8 13.5C8 13.22 8.22 13 8.5 13H9.5C9.78 13 10 13.22 10 13.5C10 13.78 9.78 14 9.5 14ZM9.5 12H8.5C8.22 12 8 11.78 8 11.5C8 11.22 8.22 11 8.5 11H9.5C9.78 11 10 11.22 10 11.5C10 11.78 9.78 12 9.5 12ZM12.5 16H11.5C11.22 16 11 15.78 11 15.5C11 15.22 11.22 15 11.5 15H12.5C12.78 15 13 15.22 13 15.5C13 15.78 12.78 16 12.5 16ZM12.5 14H11.5C11.22 14 11 13.78 11 13.5C11 13.22 11.22 13 11.5 13H12.5C12.78 13 13 13.22 13 13.5C13 13.78 12.78 14 12.5 14ZM12.5 12H11.5C11.22 12 11 11.78 11 11.5C11 11.22 11.22 11 11.5 11H12.5C12.78 11 13 11.22 13 11.5C13 11.78 12.78 12 12.5 12ZM15.5 16H14.5C14.22 16 14 15.78 14 15.5C14 15.22 14.22 15 14.5 15H15.5C15.78 15 16 15.22 16 15.5C16 15.78 15.78 16 15.5 16ZM15.5 14H14.5C14.22 14 14 13.78 14 13.5C14 13.22 14.22 13 14.5 13H15.5C15.78 13 16 13.22 16 13.5C16 13.78 15.78 14 15.5 14ZM15.5 12H14.5C14.22 12 14 11.78 14 11.5C14 11.22 14.22 11 14.5 11H15.5C15.78 11 16 11.22 16 11.5C16 11.78 15.78 12 15.5 12Z"/></svg>
